X: 1
T: Paddy Fahey's
M: 6/8
L: 1/8
R: jig
K: Cmaj
F | E/F/GC DEF | GcA Bcd | efd ga/g/e | fdc BGF |
E2 C EFD | GCD EFG | Bc/d/B cBG | FDB, CGF |
EGC DEF | GcA Bcd | efd ga/g/e | fdc BGF |
E2 C EFD | GCD EFG | Bc/d/B cBG | FDB, CEG |
|: cd/c/B Gce | gfa gec | Ad^c de/f/g | fdc BGF |
G,CE Gce | {a}gfa gec | AdB cBG |1 FDB, CEG :|2 FDB, CGF ||
&quot;Final ending, last four bars of Part B&quot;| GCD EB,D | G,CE {G}F3 | GBd cBG | FDB, C3 ||
